X: 35892
T: Sandy M'Gaff
R: jig
M: 6/8
K: Edorian
|:E3 EFG|B3 Bcd|E3 EFG|BAG FED|
E3 EFG|B2 c d2 e|fgf efe|dcB AGF:|
|:E2 e e2 g|fed e3|E2 e e2 g|fga gfe|
DFA d2 e|fec d3|DFA cdB|ABG FED:|

